icons/box-outline.svg

<svg xmlns="http://www.w3.org/2000/svg" width="24" height="24" viewBox="0 0 24 24">
    <path fill="#3A3A47" fill-rule="evenodd" d="M19 2c.486 0 .855.333 1.107.999l1.552 3.083c.227.396.341.7.341.912v12.99c0 1.306-.667 1.972-2 1.997-1.333.025-6.667.025-16 0-1.333 0-2-.666-2-1.998V6.994c0-.205.09-.458.267-.759L3.874 3C4.14 2.333 4.514 2 5 2h14zm1 5.994h-7.001v.007c0 .667-.333 1-.999 1-.666 0-1-.333-1-1v-.007H4v11.99h16V7.993zM13 16c.667 0 1 .333 1 1 0 .665-.333.998-1 .998H7c-.667 0-1-.333-1-.999 0-.666.333-.999 1-.999h6zm-3-4c.667 0 1 .333 1 1 0 .665-.333.998-1 .998H7c-.667 0-1-.333-1-.999 0-.666.333-.999 1-.999h3zm1-8H5.5l-1 2H11V4zm7.5 0H13l-.001 2H19.5l-1-2z"/>
</svg>

<svg width="24" height="24" viewBox="0 0 24 24" fill="none" xmlns="http://www.w3.org/2000/svg">
<path fill-rule="evenodd" clip-rule="evenodd" d="M11 7.994H4V19.984H20V7.993H13V8C13 8.667 12.666 9 12 9C11.334 9 11 8.667 11 8V7.993V7.994ZM11 4H5.5L4.5 6H11V4ZM13 4V6H19.5L18.5 4H13ZM2 6.995C2 6.79 2.09 6.537 2.267 6.236L3.874 3C4.14 2.333 4.514 2 5 2H19C19.486 2 19.855 2.333 20.107 2.999L21.659 6.082C21.886 6.478 22 6.782 22 6.994V19.984C22 21.29 21.333 21.956 20 21.981C18.667 22.006 13.333 22.006 4 21.981C2.667 21.981 2 21.315 2 19.983V6.994V6.995ZM7 16H13C13.667 16 14 16.333 14 17C14 17.665 13.667 17.998 13 17.998H7C6.333 17.998 6 17.665 6 16.999C6 16.333 6.333 16 7 16ZM7 12H10C10.667 12 11 12.333 11 13C11 13.665 10.667 13.998 10 13.998H7C6.333 13.998 6 13.665 6 12.999C6 12.333 6.333 12 7 12Z" fill="#3A3A47"/>
</svg>
